X:1
T:Bunny and Bear
C:\251 Gary Wikfors; transcribed by Willow Sirch
M:6/8
L:1/8
K:D
D2F EDC|DEF G2A|Bcd AGF|EDE FDB,|
D2F EDC|DEF G2A|Bcd AGF|1EDC D3:|2EDC DA_B|]
=B2G DGB|A2F DFA|GFG EDC|DEF G^GA|
B2G DGB|A2F DFA|GFG EDC|1D3-DA_B:|2D6|]
